storage/app/icons/phosphoricons/thin/tray-arrow-down-thin.svg

<svg xmlns="http://www.w3.org/2000/svg" fill="currentColor" viewBox="0 0 256 256"><path d="M208 36H48a12 12 0 0 0-12 12v160a12 12 0 0 0 12 12h160a12 12 0 0 0 12-12V48a12 12 0 0 0-12-12M48 44h160a4 4 0 0 1 4 4v108h-32.69a12 12 0 0 0-8.48 3.51l-19.32 19.32a4 4 0 0 1-2.82 1.17h-41.38a4 4 0 0 1-2.82-1.17l-19.32-19.32a12 12 0 0 0-8.48-3.51H44V48a4 4 0 0 1 4-4m160 168H48a4 4 0 0 1-4-4v-44h32.69a4 4 0 0 1 2.82 1.17l19.32 19.32a12 12 0 0 0 8.48 3.51h41.38a12 12 0 0 0 8.48-3.51l19.32-19.32a4 4 0 0 1 2.82-1.17H212v44a4 4 0 0 1-4 4M93.17 122.83a4 4 0 0 1 5.66-5.66L124 142.34V72a4 4 0 0 1 8 0v70.34l25.17-25.17a4 4 0 1 1 5.66 5.66l-32 32a4 4 0 0 1-5.66 0Z"/></svg>

<svg xmlns="http://www.w3.org/2000/svg" viewBox="0 0 256 256" fill="currentColor"><path d="M208,36H48A12,12,0,0,0,36,48V208a12,12,0,0,0,12,12H208a12,12,0,0,0,12-12V48A12,12,0,0,0,208,36ZM48,44H208a4,4,0,0,1,4,4V156H179.31a12,12,0,0,0-8.48,3.51l-19.32,19.32a4,4,0,0,1-2.82,1.17H107.31a4,4,0,0,1-2.82-1.17L85.17,159.51A12,12,0,0,0,76.69,156H44V48A4,4,0,0,1,48,44ZM208,212H48a4,4,0,0,1-4-4V164H76.69a4,4,0,0,1,2.82,1.17l19.32,19.32a12,12,0,0,0,8.48,3.51h41.38a12,12,0,0,0,8.48-3.51l19.32-19.32a4,4,0,0,1,2.82-1.17H212v44A4,4,0,0,1,208,212ZM93.17,122.83a4,4,0,0,1,5.66-5.66L124,142.34V72a4,4,0,0,1,8,0v70.34l25.17-25.17a4,4,0,1,1,5.66,5.66l-32,32a4,4,0,0,1-5.66,0Z"/></svg>
